;FLAVOR:Marlin
;TIME:5503
;Filament used: 4.82442m
;Layer height: 0.28
;MINX:18.727
;MINY:12.701
;MINZ:0.28
;MAXX:199.335
;MAXY:207.305
;MAXZ:9.8
;Generated with Cura_SteamEngine 4.2.1
M140 S50
M105
M190 S50
M104 S200
M105
M109 S200
M82 ;absolute extrusion mode
M201 X500.00 Y500.00 Z100.00 E5000.00 ;Setup machine max acceleration
M203 X500.00 Y500.00 Z10.00 E50.00 ;Setup machine max feedrate
M204 P500.00 R1000.00 T500.00 ;Setup Print/Retract/Travel acceleration
M205 X8.00 Y8.00 Z0.40 E5.00 ;Setup Jerk
M220 S100 ;Reset Feedrate
M221 S100 ;Reset Flowrate

G28 ;Home

G92 E0 ;Reset Extruder
G1 Z2.0 F3000 ;Move Z Axis up
G1 X10.1 Y20 Z0.28 F5000.0 ;Move to start position
G1 X10.1 Y200.0 Z0.28 F1500.0 E15 ;Draw the first line
G1 X10.4 Y200.0 Z0.28 F5000.0 ;Move to side a little
G1 X10.4 Y20 Z0.28 F1500.0 E30 ;Draw the second line
G92 E0 ;Reset Extruder
G1 Z2.0 F3000 ;Move Z Axis up

M141 S28
G92 E0
G92 E0
G1 F2700 E-5
;LAYER_COUNT:35
;LAYER:0
M107
G0 F6000 X42.089 Y42.577 Z0.28
;TYPE:SKIRT
G1 F2700 E0
G1 F1200 X42.307 Y42.368 E0.01547
G1 X43.537 Y41.218 E0.10172
G1 X43.872 Y40.917 E0.12479
G1 X45.441 Y39.561 E0.231
G1 X45.692 Y39.35 E0.2478
G1 X46.159 Y38.969 E0.27867
G1 X46.309 Y38.849 E0.28851
G1 X46.999 Y38.305 E0.33352
G1 X47.265 Y38.101 E0.35069
G1 X47.789 Y37.712 E0.38411
G1 X47.907 Y37.626 E0.39159
G1 X48.286 Y37.352 E0.41555
G1 X48.334 Y37.317 E0.41859
G1 X49.875 Y36.215 E0.51563
G1 X50.013 Y36.118 E0.52427
G1 X50.851 Y35.537 E0.5765
G1 X51.146 Y35.339 E0.59469
G1 X51.442 Y35.147 E0.61276
G1 X51.566 Y35.068 E0.6203
G1 X52.538 Y34.455 E0.67916
G1 X52.818 Y34.284 E0.69596
G1 X53.827 Y33.687 E0.75601
G1 X53.983 Y33.596 E0.76526
G1 X54.754 Y33.156 E0.81073
G1 X54.951 Y33.046 E0.82229
G1 X55.861 Y32.55 E0.87537
G1 X56.192 Y32.377 E0.8945
G1 X57.657 Y31.639 E0.97852
G1 X57.882 Y31.529 E0.99135
G1 X59.48 Y30.767 E1.08203
G1 X59.806 Y30.617 E1.10041
G1 X60.867 Y30.151 E1.15977
G1 X61.003 Y30.093 E1.16734
G1 X61.503 Y29.881 E1.19516
G1 X61.641 Y29.823 E1.20283
G1 X62.925 Y29.298 E1.27388
G1 X63.106 Y29.226 E1.28386
G1 X64.149 Y28.82 E1.34118
G1 X64.512 Y28.686 E1.361
G1 X66.614 Y27.948 E1.47511
G1 X66.821 Y27.877 E1.48632
G1 X67.894 Y27.523 E1.5442
G1 X68.17 Y27.436 E1.55902
G1 X69.387 Y27.068 E1.62414
G1 X69.514 Y27.03 E1.63093
G1 X71.294 Y26.514 E1.72586
G1 X71.452 Y26.47 E1.73426
G1 X72.075 Y26.299 E1.76735
G1 X72.252 Y26.252 E1.77673
G1 X73.953 Y25.814 E1.8667
G1 X74.137 Y25.768 E1.87641
G1 X75.274 Y25.495 E1.9363
G1 X75.465 Y25.451 E1.94634
G1 X77.175 Y25.071 E2.03607
G1 X77.262 Y25.052 E2.04063
G1 X78.229 Y24.845 E2.09128
G1 X78.365 Y24.817 E2.09839
G1 X79.898 Y24.508 E2.17849
G1 X80.075 Y24.473 E2.18774
G1 X80.62 Y24.372 E2.21613
G1 X80.664 Y24.364 E2.21842
G1 X83.107 Y23.921 E2.34559
G1 X83.232 Y23.899 E2.35209
G1 X84.297 Y23.718 E2.40742
G1 X84.461 Y23.692 E2.41593
G1 X85.627 Y23.511 E2.47637
G1 X85.735 Y23.494 E2.48197
G1 X87.563 Y23.228 E2.57658
G1 X88.245 Y23.124 E2.61192
G1 X88.413 Y23.099 E2.62062
G1 X89.776 Y22.911 E2.69109
G1 X89.933 Y22.891 E2.6992
G1 X91.836 Y22.655 E2.79742
G1 X95.892 Y22.144 E3.00681
G1 X95.985 Y22.132 E3.01162
G1 X96.927 Y22.021 E3.0602
G1 X97.031 Y22.009 E3.06556
G1 X105.501 Y21.089 E3.50195
G1 X105.555 Y21.084 E3.50473
G1 X148.194 Y16.657 E5.70047
G1 X185.034 Y12.829 E7.59759
G1 X185.192 Y12.813 E7.60573
G1 X185.837 Y12.755 E7.6389
G1 X186.637 Y12.711 E7.67994
G1 X187.13 Y12.701 E7.70519
G1 X188.09 Y12.722 E7.75438
G1 X188.729 Y12.78 E7.78724
G1 X189.006 Y12.813 E7.80153
G1 X189.215 Y12.84 E7.81232
G1 X189.353 Y12.859 E7.81946
G1 X190.298 Y13.029 E7.86864
G1 X191.226 Y13.278 E7.91785
G1 X192.13 Y13.603 E7.96706
G1 X193.004 Y14.002 E8.01627
G1 X193.842 Y14.472 E8.06548
G1 X194.637 Y15.01 E8.11465
G1 X195.386 Y15.613 E8.1639
G1 X196.081 Y16.276 E8.2131
G1 X196.719 Y16.994 E8.2623
G1 X197.295 Y17.763 E8.31151
G1 X197.805 Y18.577 E8.36071
G1 X198.245 Y19.43 E8.40987
G1 X198.613 Y20.318 E8.45911
G1 X198.906 Y21.233 E8.50832
G1 X199.122 Y22.169 E8.55752
G1 X199.259 Y23.119 E8.60668
G1 X199.316 Y24.028 E8.65334
G1 X199.332 Y24.73 E8.6893
G1 X199.335 Y25.027 E8.70452
G1 X199.332 Y26.04 E8.7564
G1 X199.331 Y26.187 E8.76393
G1 X199.32 Y26.887 E8.79979
G1 X199.265 Y27.846 E8.84899
G1 X199.13 Y28.798 E8.89824
G1 X198.917 Y29.734 E8.94741
G1 X198.626 Y30.65 E8.99664
G1 X198.261 Y31.538 E9.04581
G1 X197.822 Y32.393 E9.09504
G1 X197.315 Y33.208 E9.14421
G1 X196.741 Y33.979 E9.19344
G1 X196.105 Y34.699 E9.24265
G1 X195.411 Y35.363 E9.29184
G1 X194.665 Y35.968 E9.34104
G1 X194.24 Y36.269 E9.36772
G1 X193.781 Y36.579 E9.39609
G1 X191.633 Y38.071 E9.53004
G1 X189.625 Y39.552 E9.65784
G1 X187.672 Y41.078 E9.78479
G1 X185.716 Y42.698 E9.91488
G1 X183.855 Y44.331 E10.0417
G1 X182.006 Y46.048 E10.17094
G1 X180.241 Y47.782 E10.29767
G1 X178.487 Y49.607 E10.42733
G1 X176.822 Y51.439 E10.55413
G1 X175.18 Y53.352 E10.68326
G1 X173.613 Y55.286 E10.81075
G1 X172.092 Y57.278 E10.93913
G1 X170.618 Y59.323 E11.06824
G1 X169.218 Y61.385 E11.1959
G1 X167.885 Y63.475 E11.32288
G1 X166.587 Y65.644 E11.45235
G1 X165.37 Y67.812 E11.57969
G1 X164.208 Y70.028 E11.70786
G1 X163.116 Y72.261 E11.83518
G1 X162.064 Y74.579 E11.96556
G1 X161.104 Y76.859 E12.09227
G1 X160.19 Y79.214 E12.22166
G1 X159.361 Y81.552 E12.34872
G1 X158.584 Y83.954 E12.47803
G1 X157.886 Y86.335 E12.60512
G1 X157.248 Y88.763 E12.73371
G1 X156.688 Y91.172 E12.86039
G1 X156.18 Y93.674 E12.99116
G1 X155.759 Y96.107 E13.11763
G1 X155.403 Y98.566 E13.24489
G1 X155.111 Y101.094 E13.37524
G1 X154.896 Y103.56 E13.50203
G1 X154.75 Y106.044 E13.62948
G1 X154.673 Y108.572 E13.75902
G1 X154.667 Y111.066 E13.88677
G1 X154.733 Y113.558 E14.01446
G1 X154.87 Y116.081 E14.14388
G1 X155.075 Y118.546 E14.27057
G1 X155.353 Y121.042 E14.39921
G1 X155.697 Y123.497 E14.52618
G1 X156.118 Y125.991 E14.65573
G1 X156.605 Y128.444 E14.78383
G1 X157.162 Y130.89 E14.91232
G1 X157.785 Y133.303 E15.03997
G1 X158.473 Y135.691 E15.16726
G1 X159.241 Y138.095 E15.29653
G1 X160.072 Y140.466 E15.42521
G1 X160.95 Y142.76 E15.55103
G1 X161.922 Y145.099 E15.68076
G1 X162.933 Y147.353 E15.8073
G1 X164.048 Y149.656 E15.93836
G1 X165.18 Y151.84 E16.06436
G1 X166.407 Y154.048 E16.19374
G1 X167.686 Y156.205 E16.32219
G1 X169.012 Y158.303 E16.44931
G1 X170.419 Y160.397 E16.57853
G1 X171.847 Y162.396 E16.70436
G1 X173.383 Y164.422 E16.83459
G1 X174.941 Y166.363 E16.96207
G1 X176.556 Y168.263 E17.0898
G1 X178.228 Y170.118 E17.21771
G1 X179.975 Y171.951 E17.34741
G1 X181.735 Y173.695 E17.47432
G1 X183.586 Y175.429 E17.60423
G1 X185.437 Y177.067 E17.73084
G1 X187.357 Y178.672 E17.85901
G1 X189.323 Y180.221 E17.98721
G1 X191.327 Y181.712 E18.11515
G1 X194.274 Y183.757 E18.29888
G1 X194.273 Y183.758 E18.29896
G1 X195.004 Y184.297 E18.34548
G1 X195.727 Y184.929 E18.39466
G1 X196.395 Y185.62 E18.44389
G1 X197.003 Y186.364 E18.49311
G1 X197.547 Y187.155 E18.54228
G1 X198.024 Y187.99 E18.59153
G1 X198.429 Y188.86 E18.64069
G1 X198.761 Y189.762 E18.68992
G1 X199.016 Y190.688 E18.73911
G1 X199.193 Y191.632 E18.78831
G1 X199.311 Y193.051 E18.86124
G1 X199.327 Y193.822 E18.90074
G1 X199.329 Y194.012 E18.91047
G1 X199.333 Y194.96 E18.95903
G1 X199.333 Y195.108 E18.96661
G1 X199.327 Y195.807 E19.00242
G1 X199.278 Y196.766 E19.0516
G1 X199.151 Y197.719 E19.10085
G1 X198.944 Y198.657 E19.15005
G1 X198.66 Y199.574 E19.19922
G1 X198.301 Y200.465 E19.24842
G1 X197.869 Y201.323 E19.29762
G1 X197.367 Y202.142 E19.34683
G1 X196.798 Y202.917 E19.39607
G1 X196.168 Y203.641 E19.44523
G1 X195.479 Y204.311 E19.49446
G1 X194.737 Y204.921 E19.54366
G1 X193.946 Y205.467 E19.59289
G1 X193.113 Y205.945 E19.64208
G1 X192.243 Y206.353 E19.6913
G1 X191.343 Y206.687 E19.74047
G1 X190.417 Y206.944 E19.78969
G1 X189.141 Y207.168 E19.85605
G1 X188.887 Y207.198 E19.86915
G1 X188.596 Y207.229 E19.88414
G1 X188.304 Y207.256 E19.89916
G1 X187.344 Y207.305 E19.94839
G1 X186.341 Y207.27 E19.9998
G1 X185.011 Y207.166 E20.06813
G1 X184.719 Y207.139 E20.08315
G1 X148.218 Y203.347 E21.96282
G1 X105.099 Y198.868 E24.18328
G1 X105.057 Y198.864 E24.18544
G1 X102.267 Y198.564 E24.32917
G1 X102.247 Y198.562 E24.3302
G1 X96.986 Y197.987 E24.60128
G1 X96.909 Y197.978 E24.60525
G1 X95.101 Y197.768 E24.69848
G1 X94.999 Y197.756 E24.70374
G1 X90.659 Y197.213 E24.92777
G1 X90.556 Y197.199 E24.93309
G1 X89.618 Y197.073 E24.98157
G1 X89.517 Y197.059 E24.98679
G1 X88.624 Y196.931 E25.033
G1 X88.534 Y196.918 E25.03766
G1 X87.151 Y196.709 E25.1093
G1 X85.366 Y196.448 E25.2017
G1 X85.206 Y196.423 E25.21
G1 X83.836 Y196.203 E25.28107
G1 X83.653 Y196.172 E25.29057
G1 X81.135 Y195.726 E25.42156
G1 X80.945 Y195.691 E25.43145
G1 X79.433 Y195.397 E25.51035
G1 X79.255 Y195.361 E25.51965
G1 X76.429 Y194.765 E25.66758
G1 X76.257 Y194.727 E25.6766
G1 X74.811 Y194.399 E25.75255
G1 X74.638 Y194.359 E25.76165
G1 X73.774 Y194.149 E25.80719
G1 X73.587 Y194.101 E25.81708
G1 X72.391 Y193.789 E25.88039
G1 X72.23 Y193.746 E25.88892
G1 X70.996 Y193.405 E25.9545
G1 X70.833 Y193.359 E25.96317
G1 X69.341 Y192.923 E26.04279
G1 X69.169 Y192.871 E26.052
G1 X68.105 Y192.542 E26.10904
G1 X67.933 Y192.487 E26.11829
G1 X66.53 Y192.029 E26.19388
G1 X66.299 Y191.951 E26.20637
G1 X65.819 Y191.783 E26.23242
G1 X65.7 Y191.741 E26.23888
G1 X64.03 Y191.136 E26.32986
G1 X63.762 Y191.035 E26.34453
G1 X62.651 Y190.601 E26.40563
G1 X62.449 Y190.52 E26.41677
G1 X62.003 Y190.336 E26.44149
G1 X61.767 Y190.236 E26.45461
G1 X59.848 Y189.394 E26.56195
G1 X59.634 Y189.297 E26.57399
G1 X59.28 Y189.133 E26.59397
G1 X59.173 Y189.083 E26.60002
G1 X58.368 Y188.7 E26.64568
G1 X58.262 Y188.649 E26.65171
G1 X57.318 Y188.188 E26.70552
G1 X57.174 Y188.116 E26.71376
G1 X56.213 Y187.63 E26.76892
G1 X55.914 Y187.473 E26.78622
G1 X55.507 Y187.252 E26.80994
G1 X55.337 Y187.158 E26.81989
G1 X53.861 Y186.324 E26.90673
G1 X53.539 Y186.135 E26.92585
G1 X51.909 Y185.143 E27.02359
G1 X51.742 Y185.039 E27.03366
G1 X51.462 Y184.862 E27.05063
G1 X51.361 Y184.798 E27.05676
G1 X50.877 Y184.485 E27.08628
G1 X50.607 Y184.305 E27.1029
G1 X49.526 Y183.562 E27.17009
G1 X49.186 Y183.319 E27.19149
G1 X47.259 Y181.889 E27.3144
G1 X47.125 Y181.788 E27.323
G1 X46.572 Y181.365 E27.35866
G1 X46.328 Y181.173 E27.37456
G1 X45.806 Y180.751 E27.40894
G1 X45.504 Y180.499 E27.42909
G1 X43.887 Y179.098 E27.53868
G1 X43.559 Y178.802 E27.56131
G1 X42.284 Y177.609 E27.65074
G1 X41.98 Y177.314 E27.67244
G1 X40.725 Y176.05 E27.76368
G1 X40.44 Y175.752 E27.7848
G1 X39.193 Y174.403 E27.87889
G1 X38.914 Y174.091 E27.90033
G1 X37.754 Y172.741 E27.9915
G1 X37.498 Y172.431 E28.01209
G1 X36.287 Y170.918 E28.11135
G1 X36.03 Y170.586 E28.13286
G1 X34.926 Y169.099 E28.22772
G1 X34.685 Y168.762 E28.24894
G1 X33.489 Y167.024 E28.35701
G1 X33.276 Y166.702 E28.37678
G1 X32.373 Y165.291 E28.46259
G1 X32.28 Y165.144 E28.4715
G1 X32.103 Y164.858 E28.48872
G1 X31.994 Y164.679 E28.49946
G1 X31.198 Y163.339 E28.57929
G1 X31.109 Y163.185 E28.5884
G1 X30.902 Y162.824 E28.60971
G1 X30.807 Y162.655 E28.61965
G1 X30.189 Y161.534 E28.68521
G1 X30.02 Y161.217 E28.70361
G1 X29.614 Y160.423 E28.74929
G1 X29.465 Y160.121 E28.76654
G1 X28.523 Y158.138 E28.87899
G1 X27.519 Y156.054 E28.99747
G1 X27.443 Y155.893 E29.00659
G1 X27.116 Y155.187 E29.04644
G1 X26.992 Y154.911 E29.06194
G1 X26.856 Y154.596 E29.07951
G1 X26.752 Y154.346 E29.09338
G1 X26.286 Y153.193 E29.15708
G1 X26.229 Y153.05 E29.16497
G1 X25.574 Y151.365 E29.25757
G1 X25.513 Y151.205 E29.26634
G1 X25.09 Y150.067 E29.32852
G1 X24.989 Y149.782 E29.34401
G1 X24.642 Y148.768 E29.3989
G1 X24.616 Y148.692 E29.40302
G1 X24.224 Y147.52 E29.46632
G1 X24.17 Y147.355 E29.47521
G1 X23.631 Y145.659 E29.56636
G1 X23.571 Y145.466 E29.57671
G1 X23.382 Y144.833 E29.61055
G1 X23.34 Y144.687 E29.61833
G1 X22.982 Y143.428 E29.68538
G1 X22.947 Y143.301 E29.69212
G1 X22.703 Y142.404 E29.73974
G1 X22.663 Y142.255 E29.74764
G1 X22.356 Y141.064 E29.81064
G1 X22.322 Y140.929 E29.81777
G1 X22.092 Y139.99 E29.86729
G1 X22.054 Y139.827 E29.87586
G1 X21.745 Y138.481 E29.94659
G1 X21.713 Y138.338 E29.9541
G1 X21.433 Y137.043 E30.02196
G1 X21.396 Y136.867 E30.03118
G1 X21.094 Y135.357 E30.11005
G1 X21.057 Y135.163 E30.12017
G1 X20.718 Y133.303 E30.21701
G1 X20.689 Y133.138 E30.22559
G1 X20.52 Y132.128 E30.27804
G1 X20.497 Y131.983 E30.28556
G1 X20.149 Y129.726 E30.40253
G1 X20.129 Y129.589 E30.40962
G1 X19.997 Y128.659 E30.45773
G1 X19.98 Y128.535 E30.46415
G1 X19.723 Y126.572 E30.56555
G1 X19.704 Y126.421 E30.57334
G1 X19.569 Y125.272 E30.6326
G1 X19.554 Y125.135 E30.63966
G1 X19.394 Y123.617 E30.71784
G1 X19.382 Y123.497 E30.72402
G1 X19.265 Y122.264 E30.78746
G1 X19.254 Y122.146 E30.79353
G1 X19.176 Y121.223 E30.84098
G1 X19.167 Y121.105 E30.84704
G1 X19.03 Y119.259 E30.94185
G1 X19.02 Y119.109 E30.94955
G1 X18.95 Y117.964 E31.00831
G1 X18.943 Y117.84 E31.01467
G1 X18.85 Y115.993 E31.10939
G1 X18.844 Y115.86 E31.11621
G1 X18.804 Y114.828 E31.16911
G1 X18.8 Y114.713 E31.17501
G1 X18.777 Y113.913 E31.216
G1 X18.775 Y113.826 E31.22046
G1 X18.736 Y111.99 E31.31452
G1 X18.733 Y111.848 E31.32179
G1 X18.727 Y111.173 E31.35637
G1 X18.727 Y111.02 E31.36421
G1 X18.739 Y108.277 E31.50471
G1 X18.742 Y108.077 E31.51495
G1 X18.765 Y107.016 E31.56931
G1 X18.767 Y106.914 E31.57453
G1 X18.817 Y105.277 E31.65842
G1 X18.823 Y105.114 E31.66678
G1 X18.885 Y103.725 E31.73799
G1 X18.893 Y103.576 E31.74564
G1 X19.023 Y101.32 E31.86138
G1 X19.032 Y101.175 E31.86882
G1 X19.118 Y99.952 E31.93162
G1 X19.129 Y99.813 E31.93876
G1 X19.19 Y99.073 E31.97679
G1 X19.194 Y99.021 E31.97946
G1 X19.306 Y97.733 E32.04569
G1 X19.318 Y97.604 E32.05232
G1 X19.419 Y96.577 E32.10518
G1 X19.434 Y96.434 E32.11254
G1 X19.568 Y95.226 E32.1748
G1 X19.579 Y95.131 E32.1797
G1 X19.812 Y93.178 E32.28044
G1 X19.824 Y93.08 E32.2855
G1 X19.936 Y92.205 E32.33068
G1 X19.95 Y92.102 E32.336
G1 X20.029 Y91.526 E32.36578
G1 X20.046 Y91.406 E32.37199
G1 X20.194 Y90.405 E32.42382
G1 X20.216 Y90.265 E32.43108
G1 X20.677 Y87.391 E32.58017
G1 X20.71 Y87.197 E32.59025
G1 X20.938 Y85.916 E32.65689
G1 X20.964 Y85.772 E32.66439
G1 X21.273 Y84.155 E32.74871
G1 X21.303 Y84.004 E32.7566
G1 X21.551 Y82.794 E32.81986
G1 X21.581 Y82.651 E32.82735
G1 X22.114 Y80.208 E32.95542
G1 X22.15 Y80.049 E32.96377
G1 X22.448 Y78.77 E33.03104
G1 X22.484 Y78.62 E33.03894
G1 X22.807 Y77.313 E33.1079
G1 X22.868 Y77.076 E33.12043
G1 X23.375 Y75.197 E33.22012
G1 X23.461 Y74.895 E33.2362
G1 X23.569 Y74.534 E33.2555
G1 X23.607 Y74.412 E33.26205
G1 X23.956 Y73.291 E33.32218
G1 X24.014 Y73.107 E33.33207
G1 X24.318 Y72.185 E33.38179
G1 X24.362 Y72.054 E33.38887
G1 X25.033 Y70.098 E33.49479
G1 X25.132 Y69.822 E33.50981
G1 X25.791 Y68.049 E33.60669
G1 X25.854 Y67.884 E33.61574
G1 X26.028 Y67.437 E33.64031
G1 X26.082 Y67.301 E33.6478
G1 X26.715 Y65.734 E33.73437
G1 X26.83 Y65.459 E33.74963
G1 X27.293 Y64.393 E33.80916
G1 X27.376 Y64.207 E33.8196
G1 X27.979 Y62.883 E33.89411
G1 X28.051 Y62.727 E33.90291
G1 X28.471 Y61.84 E33.95318
G1 X28.541 Y61.695 E33.96143
G1 X29.148 Y60.458 E34.03201
G1 X29.247 Y60.262 E34.04325
G1 X29.779 Y59.228 E34.10282
G1 X29.915 Y58.971 E34.11771
G1 X30.481 Y57.936 E34.17813
G1 X30.551 Y57.81 E34.18551
G1 X30.974 Y57.059 E34.22966
G1 X31.122 Y56.804 E34.24476
G1 X32.263 Y54.894 E34.35872
G1 X32.484 Y54.538 E34.38019
G1 X33.534 Y52.917 E34.47911
G1 X33.717 Y52.644 E34.49595
G1 X34.667 Y51.265 E34.58172
G1 X34.863 Y50.99 E34.59901
G1 X35.489 Y50.136 E34.65325
G1 X35.578 Y50.015 E34.66094
G1 X36.057 Y49.379 E34.70173
G1 X36.242 Y49.14 E34.71721
G1 X37.181 Y47.959 E34.79449
G1 X37.385 Y47.71 E34.81098
G1 X37.885 Y47.116 E34.85074
G1 X37.949 Y47.041 E34.85579
G1 X38.587 Y46.296 E34.90603
G1 X38.677 Y46.192 E34.91308
G1 X39.184 Y45.614 E34.95246
G1 X39.379 Y45.397 E34.9674
G1 X40.471 Y44.214 E35.04987
G1 X40.722 Y43.95 E35.06852
G1 X41.486 Y43.173 E35.12434
G1 X41.616 Y43.043 E35.13376
G1 X42.089 Y42.577 E35.16777
G0 F6000 X42.398 Y42.891
G1 F1200 X42.607 Y42.69 E35.18262
G1 X43.837 Y41.54 E35.26887
G1 X44.16 Y41.25 E35.2911
G1 X45.729 Y39.894 E35.39732
G1 X45.97 Y39.691 E35.41346
G1 X46.437 Y39.31 E35.44433
G1 X46.582 Y39.194 E35.45384
G1 X47.272 Y38.65 E35.49885
G1 X47.528 Y38.454 E35.51536
