;FLAVOR:Marlin
;TIME:3439
;Filament used: 4.79317m, 0m
;Layer height: 0.28
;MINX:34.556
;MINY:28.539
;MINZ:0.3
;MAXX:198.52
;MAXY:206.466
;MAXZ:9.82
;Generated with Cura_SteamEngine 4.2.1
T0
M140 S60
M105
M190 S60
M104 S210
M105
M109 S210
M82 ;absolute extrusion mode
G28 ;Home
G1 Z15.0 F6000 ;Move the platform down 15mm
G92 E0
G1 F200 E3
G92 E0
M141 S28
G92 E0
G92 E0
G1 F2400 E-4.5
;LAYER_COUNT:35
;LAYER:0
M107
G0 F3600 X55.459 Y55.99 Z0.3
;TYPE:SKIRT
G1 F2400 E0
G1 F1800 X55.516 Y55.935 E0.00395
G1 X56.712 Y54.816 E0.08566
G1 X56.804 Y54.733 E0.09185
G1 X58.336 Y53.407 E0.19293
G1 X58.406 Y53.348 E0.1975
G1 X58.946 Y52.907 E0.23228
G1 X58.988 Y52.873 E0.23498
G1 X59.712 Y52.302 E0.28098
G1 X59.775 Y52.254 E0.28493
G1 X60.058 Y52.042 E0.30257
G1 X60.1 Y52.012 E0.30515
G1 X60.746 Y51.544 E0.34495
G1 X60.762 Y51.532 E0.34594
G1 X62.144 Y50.544 E0.4307
G1 X62.181 Y50.518 E0.43296
G1 X63.066 Y49.904 E0.48669
G1 X63.149 Y49.848 E0.49169
G1 X63.442 Y49.658 E0.50911
G1 X63.478 Y49.635 E0.51124
G1 X64.509 Y48.986 E0.57202
G1 X64.585 Y48.94 E0.57645
G1 X65.581 Y48.351 E0.63418
G1 X65.622 Y48.327 E0.63655
G1 X66.381 Y47.893 E0.68017
G1 X66.436 Y47.862 E0.68332
G1 X67.354 Y47.361 E0.7355
G1 X67.438 Y47.317 E0.74023
G1 X68.273 Y46.893 E0.78695
G1 X68.295 Y46.882 E0.78818
G1 X68.911 Y46.575 E0.82252
G1 X68.96 Y46.551 E0.82524
G1 X70.547 Y45.794 E0.91296
G1 X70.637 Y45.753 E0.91789
G1 X71.776 Y45.252 E0.97997
G1 X71.814 Y45.235 E0.98205
G1 X72.224 Y45.061 E1.00427
G1 X72.263 Y45.045 E1.00637
G1 X73.498 Y44.54 E1.07294
G1 X73.55 Y44.519 E1.07574
G1 X74.723 Y44.063 E1.13853
G1 X74.815 Y44.029 E1.14342
G1 X76.401 Y43.468 E1.22735
G1 X76.442 Y43.454 E1.22951
G1 X76.891 Y43.302 E1.25316
G1 X76.914 Y43.294 E1.25438
G1 X78.05 Y42.919 E1.31406
G1 X78.126 Y42.895 E1.31804
G1 X79.279 Y42.546 E1.37814
G1 X79.316 Y42.535 E1.38006
G1 X81.088 Y42.022 E1.4721
G1 X81.138 Y42.008 E1.47469
G1 X81.682 Y41.86 E1.50281
G1 X81.718 Y41.851 E1.50467
G1 X83.493 Y41.39 E1.59616
G1 X83.55 Y41.375 E1.5991
G1 X84.717 Y41.095 E1.65897
G1 X84.762 Y41.085 E1.66127
G1 X86.217 Y40.758 E1.73567
G1 X86.252 Y40.75 E1.73747
G1 X87.359 Y40.514 E1.79394
G1 X87.392 Y40.507 E1.79562
G1 X89.045 Y40.173 E1.87975
G1 X89.096 Y40.164 E1.88234
G1 X89.808 Y40.032 E1.91846
G1 X89.826 Y40.028 E1.91938
G1 X92.741 Y39.505 E2.06714
G1 X92.784 Y39.498 E2.06931
G1 X93.328 Y39.408 E2.09682
G1 X93.36 Y39.403 E2.09843
G1 X94.411 Y39.24 E2.1515
G1 X94.437 Y39.236 E2.15281
G1 X97.116 Y38.843 E2.2879
G1 X97.142 Y38.839 E2.28921
G1 X98.453 Y38.658 E2.35523
G1 X98.493 Y38.653 E2.35725
G1 X104.475 Y37.903 E2.65802
G1 X104.501 Y37.9 E2.65933
G1 X105.313 Y37.805 E2.70012
G1 X105.339 Y37.802 E2.70142
G1 X113.983 Y36.863 E3.13521
G1 X113.999 Y36.861 E3.13602
G1 X153.879 Y32.72 E5.13633
G1 X193.394 Y28.614 E7.11836
G1 X193.437 Y28.61 E7.12051
G1 X194.082 Y28.552 E7.15282
G1 X194.423 Y28.539 E7.16985
G1 X194.66 Y28.543 E7.18167
G1 X194.823 Y28.55 E7.18981
G1 X195.515 Y28.597 E7.22442
G1 X196.015 Y28.671 E7.24963
G1 X196.497 Y28.823 E7.27485
G1 X196.949 Y29.049 E7.30006
G1 X197.361 Y29.343 E7.32531
G1 X197.72 Y29.699 E7.35054
G1 X198.019 Y30.106 E7.37573
G1 X198.25 Y30.556 E7.40097
G1 X198.408 Y31.036 E7.42618
G1 X198.497 Y31.721 E7.46064
G1 X198.519 Y32.748 E7.51189
G1 X198.52 Y32.821 E7.51553
G1 X198.519 Y33.545 E7.55165
G1 X198.519 Y33.585 E7.55365
G1 X198.51 Y34.246 E7.58663
G1 X198.463 Y34.749 E7.61183
G1 X198.337 Y35.239 E7.63707
G1 X198.136 Y35.703 E7.6623
G1 X197.865 Y36.129 E7.68749
G1 X197.529 Y36.507 E7.71272
G1 X197.109 Y36.848 E7.73971
G1 X196.459 Y37.29 E7.77893
G1 X194.186 Y38.874 E7.91715
G1 X191.97 Y40.513 E8.05466
G1 X189.828 Y42.194 E8.1905
G1 X187.698 Y43.965 E8.3287
G1 X185.673 Y45.748 E8.46331
G1 X183.643 Y47.638 E8.60169
G1 X181.707 Y49.549 E8.73741
G1 X179.824 Y51.513 E8.87315
G1 X177.974 Y53.557 E9.01069
G1 X176.177 Y55.656 E9.14854
G1 X174.494 Y57.743 E9.2823
G1 X172.813 Y59.951 E9.42075
G1 X171.216 Y62.173 E9.55727
G1 X169.69 Y64.432 E9.69328
G1 X168.219 Y66.745 E9.83003
G1 X166.819 Y69.095 E9.9665
G1 X165.485 Y71.482 E10.10293
G1 X164.21 Y73.924 E10.24036
G1 X163.017 Y76.374 E10.37632
G1 X161.893 Y78.862 E10.51252
G1 X160.826 Y81.409 E10.65029
G1 X159.836 Y83.973 E10.78741
G1 X158.934 Y86.53 E10.92269
G1 X158.09 Y89.151 E11.06006
G1 X157.332 Y91.752 E11.19523
G1 X156.637 Y94.421 E11.33282
G1 X156.022 Y97.085 E11.46923
G1 X155.476 Y99.794 E11.6071
G1 X155.022 Y102.453 E11.74167
G1 X154.629 Y105.2 E11.88012
G1 X154.323 Y107.892 E12.01529
G1 X154.09 Y110.606 E12.15119
G1 X153.934 Y113.353 E12.28846
G1 X153.855 Y116.106 E12.42586
G1 X153.853 Y118.824 E12.56146
G1 X153.93 Y121.576 E12.69881
G1 X154.083 Y124.294 E12.83463
G1 X154.314 Y127.027 E12.97147
G1 X154.626 Y129.778 E13.10959
G1 X155.005 Y132.455 E13.24448
G1 X155.467 Y135.15 E13.3809
G1 X156.002 Y137.826 E13.51705
G1 X156.62 Y140.521 E13.65499
G1 X157.307 Y143.165 E13.79128
G1 X158.068 Y145.784 E13.92735
G1 X158.908 Y148.4 E14.06442
G1 X159.814 Y150.971 E14.20042
G1 X160.8 Y153.533 E14.33738
G1 X161.856 Y156.066 E14.47429
G1 X162.976 Y158.544 E14.60996
G1 X164.182 Y161.03 E14.74781
G1 X165.446 Y163.458 E14.88438
G1 X166.767 Y165.825 E15.01961
G1 X168.181 Y168.199 E15.15747
G1 X169.643 Y170.504 E15.29365
G1 X171.172 Y172.771 E15.43007
G1 X172.759 Y174.985 E15.56597
G1 X174.43 Y177.182 E15.70368
G1 X176.144 Y179.309 E15.83997
G1 X177.918 Y181.386 E15.97624
G1 X179.772 Y183.439 E16.11425
G1 X181.651 Y185.402 E16.24982
G1 X183.608 Y187.336 E16.38709
G1 X185.575 Y189.173 E16.52136
G1 X187.676 Y191.025 E16.66109
G1 X189.731 Y192.735 E16.79447
G1 X191.927 Y194.461 E16.93382
G1 X194.108 Y196.078 E17.06927
G1 X196.406 Y197.661 E17.20849
G1 X196.427 Y197.675 E17.20975
G1 X197.128 Y198.166 E17.25244
G1 X197.518 Y198.488 E17.27768
G1 X197.852 Y198.867 E17.30288
G1 X198.122 Y199.294 E17.32808
G1 X198.322 Y199.759 E17.35334
G1 X198.446 Y200.249 E17.37855
G1 X198.491 Y200.708 E17.40156
G1 X198.513 Y201.597 E17.44593
G1 X198.514 Y201.661 E17.44912
G1 X198.518 Y202.496 E17.49078
G1 X198.518 Y202.539 E17.49293
G1 X198.512 Y203.229 E17.52735
G1 X198.468 Y203.732 E17.55254
G1 X198.344 Y204.223 E17.57781
G1 X198.146 Y204.688 E17.60302
G1 X197.876 Y205.115 E17.62823
G1 X197.543 Y205.495 E17.65344
G1 X197.153 Y205.818 E17.6787
G1 X196.718 Y206.075 E17.70391
G1 X196.248 Y206.261 E17.72912
G1 X195.72 Y206.375 E17.75607
G1 X195.152 Y206.448 E17.78464
G1 X194.511 Y206.466 E17.81664
G1 X194.223 Y206.445 E17.83104
G1 X194.127 Y206.436 E17.83585
G1 X153.886 Y202.282 E19.85415
G1 X153.884 Y202.282 E19.85425
G1 X113.541 Y198.091 E21.8778
G1 X113.53 Y198.09 E21.87836
G1 X110.44 Y197.758 E22.0334
G1 X110.435 Y197.757 E22.03366
G1 X105.57 Y197.226 E22.27782
G1 X105.548 Y197.224 E22.27892
G1 X103.473 Y196.983 E22.38314
G1 X103.444 Y196.979 E22.3846
G1 X99.155 Y196.442 E22.60025
G1 X99.128 Y196.439 E22.6016
G1 X98.217 Y196.317 E22.64746
G1 X98.185 Y196.312 E22.64907
G1 X97.242 Y196.176 E22.69661
G1 X97.222 Y196.173 E22.69761
G1 X95.651 Y195.936 E22.77688
G1 X94.138 Y195.715 E22.85316
G1 X94.092 Y195.708 E22.85549
G1 X92.587 Y195.466 E22.93153
G1 X92.536 Y195.458 E22.93411
G1 X90.106 Y195.027 E23.05724
G1 X90.053 Y195.017 E23.05993
G1 X88.555 Y194.725 E23.13607
G1 X88.508 Y194.715 E23.13847
G1 X85.619 Y194.107 E23.28576
G1 X85.564 Y194.095 E23.28856
G1 X83.717 Y193.672 E23.3831
G1 X83.661 Y193.659 E23.38597
G1 X83.306 Y193.571 E23.40421
G1 X83.266 Y193.561 E23.40627
G1 X81.951 Y193.217 E23.47408
G1 X81.911 Y193.206 E23.47615
G1 X80.717 Y192.877 E23.53794
G1 X80.668 Y192.863 E23.54048
G1 X79.178 Y192.427 E23.61794
G1 X79.136 Y192.414 E23.62013
G1 X78.09 Y192.092 E23.67473
G1 X78.035 Y192.075 E23.6776
G1 X76.566 Y191.594 E23.75472
G1 X76.5 Y191.572 E23.75819
G1 X76.048 Y191.413 E23.7821
G1 X76.023 Y191.404 E23.78342
G1 X74.492 Y190.851 E23.86464
G1 X74.41 Y190.82 E23.86901
G1 X72.889 Y190.223 E23.95053
G1 X72.819 Y190.194 E23.95431
G1 X72.481 Y190.052 E23.9726
G1 X72.432 Y190.031 E23.97526
G1 X70.735 Y189.285 E24.06774
G1 X70.683 Y189.262 E24.07058
G1 X70.425 Y189.143 E24.08475
G1 X70.395 Y189.129 E24.0864
G1 X69.399 Y188.657 E24.14139
G1 X69.364 Y188.64 E24.14333
G1 X68.478 Y188.207 E24.19253
G1 X68.435 Y188.186 E24.19492
G1 X67.54 Y187.732 E24.24499
G1 X67.465 Y187.692 E24.24923
G1 X66.909 Y187.391 E24.28077
G1 X66.859 Y187.364 E24.28361
G1 X65.422 Y186.553 E24.36593
G1 X65.328 Y186.497 E24.37139
G1 X63.806 Y185.568 E24.46035
G1 X63.747 Y185.532 E24.4638
G1 X62.913 Y184.998 E24.5132
G1 X62.826 Y184.94 E24.51842
G1 X61.709 Y184.172 E24.58605
G1 X61.614 Y184.104 E24.59188
G1 X59.729 Y182.704 E24.70902
G1 X59.698 Y182.681 E24.71095
G1 X59.132 Y182.25 E24.74644
G1 X59.055 Y182.189 E24.75134
G1 X58.53 Y181.763 E24.78507
G1 X58.454 Y181.699 E24.79003
G1 X56.917 Y180.371 E24.89137
G1 X56.825 Y180.289 E24.89751
G1 X55.522 Y179.072 E24.98647
G1 X55.437 Y178.99 E24.99236
G1 X54.144 Y177.69 E25.08383
G1 X54.063 Y177.605 E25.08969
G1 X52.787 Y176.224 E25.1835
G1 X52.708 Y176.136 E25.1894
G1 X51.554 Y174.791 E25.27781
G1 X51.483 Y174.705 E25.28338
G1 X50.281 Y173.201 E25.37943
G1 X50.212 Y173.111 E25.38509
G1 X49.133 Y171.658 E25.47538
G1 X49.067 Y171.565 E25.48107
G1 X47.832 Y169.772 E25.58969
G1 X47.772 Y169.682 E25.59509
G1 X46.905 Y168.327 E25.67534
G1 X46.875 Y168.28 E25.67812
G1 X46.71 Y168.012 E25.69383
G1 X46.685 Y167.97 E25.69626
G1 X45.837 Y166.544 E25.77904
G1 X45.809 Y166.497 E25.78177
G1 X45.626 Y166.177 E25.80016
G1 X45.602 Y166.133 E25.80266
G1 X44.989 Y165.021 E25.86601
G1 X44.943 Y164.935 E25.87087
G1 X44.459 Y163.99 E25.92384
G1 X44.417 Y163.904 E25.92862
G1 X43.326 Y161.608 E26.05544
G1 X42.593 Y160.086 E26.13972
G1 X42.573 Y160.045 E26.142
G1 X42.173 Y159.183 E26.18941
G1 X42.114 Y159.048 E26.19676
G1 X41.451 Y157.428 E26.28408
G1 X41.429 Y157.373 E26.28704
G1 X40.839 Y155.851 E26.36848
G1 X40.825 Y155.812 E26.37055
G1 X40.41 Y154.699 E26.42981
G1 X40.38 Y154.617 E26.43416
G1 X39.986 Y153.465 E26.49491
G1 X39.978 Y153.442 E26.49612
G1 X39.617 Y152.36 E26.55303
G1 X39.603 Y152.316 E26.55533
G1 X39.075 Y150.655 E26.64228
G1 X39.059 Y150.601 E26.64509
G1 X38.868 Y149.961 E26.67842
G1 X38.856 Y149.921 E26.6805
G1 X38.498 Y148.662 E26.7458
G1 X38.488 Y148.626 E26.74767
G1 X38.23 Y147.676 E26.79678
G1 X38.22 Y147.637 E26.79879
G1 X37.925 Y146.494 E26.85768
G1 X37.915 Y146.456 E26.85964
G1 X37.669 Y145.452 E26.91121
G1 X37.66 Y145.414 E26.91316
G1 X37.377 Y144.195 E26.97559
G1 X37.369 Y144.158 E26.97748
G1 X37.183 Y143.312 E27.0207
G1 X37.172 Y143.264 E27.02315
G1 X36.862 Y141.743 E27.1006
G1 X36.852 Y141.69 E27.10329
G1 X36.542 Y140.026 E27.18773
G1 X36.538 Y140.003 E27.1889
G1 X36.409 Y139.281 E27.22549
G1 X36.404 Y139.25 E27.22706
G1 X36.243 Y138.295 E27.27537
G1 X36.237 Y138.262 E27.27705
G1 X36.058 Y137.127 E27.33437
G1 X36.055 Y137.108 E27.33533
G1 X35.889 Y136.014 E27.39054
G1 X35.885 Y135.983 E27.3921
G1 X35.737 Y134.938 E27.44475
G1 X35.732 Y134.904 E27.44647
G1 X35.49 Y133.053 E27.5396
G1 X35.485 Y133.009 E27.54181
G1 X35.314 Y131.545 E27.61534
G1 X35.308 Y131.492 E27.618
G1 X35.061 Y129.02 E27.74195
G1 X35.056 Y128.971 E27.7444
G1 X34.981 Y128.083 E27.78886
G1 X34.979 Y128.052 E27.79041
G1 X34.832 Y126.079 E27.88912
G1 X34.829 Y126.033 E27.89142
G1 X34.766 Y124.987 E27.9437
G1 X34.764 Y124.956 E27.94525
G1 X34.675 Y123.193 E28.03332
G1 X34.674 Y123.16 E28.03497
G1 X34.627 Y121.982 E28.09378
G1 X34.625 Y121.934 E28.09618
G1 X34.576 Y119.966 E28.19439
G1 X34.575 Y119.919 E28.19674
G1 X34.556 Y118.098 E28.28759
G1 X34.556 Y118.056 E28.28969
G1 X34.56 Y116.592 E28.36273
G1 X34.56 Y116.566 E28.36403
G1 X34.568 Y115.836 E28.40045
G1 X34.569 Y115.803 E28.4021
G1 X34.592 Y114.721 E28.45609
G1 X34.645 Y113.025 E28.54074
G1 X34.646 Y112.985 E28.54274
G1 X34.706 Y111.619 E28.61096
G1 X34.708 Y111.576 E28.6131
G1 X34.834 Y109.372 E28.72324
G1 X34.837 Y109.327 E28.72549
G1 X34.936 Y107.941 E28.79482
G1 X35.096 Y106.053 E28.88935
G1 X35.1 Y106.013 E28.89135
G1 X35.214 Y104.843 E28.95
G1 X35.218 Y104.801 E28.9521
G1 X35.336 Y103.736 E29.00556
G1 X35.339 Y103.711 E29.00682
G1 X35.576 Y101.716 E29.10705
G1 X35.582 Y101.674 E29.10917
G1 X35.778 Y100.189 E29.1839
G1 X35.784 Y100.141 E29.18631
G1 X35.941 Y99.077 E29.23997
G1 X35.947 Y99.041 E29.24179
G1 X36.239 Y97.205 E29.33454
G1 X36.241 Y97.189 E29.33534
G1 X36.404 Y96.197 E29.3855
G1 X36.411 Y96.157 E29.38752
G1 X36.637 Y94.883 E29.45207
G1 X36.645 Y94.841 E29.45421
G1 X36.943 Y93.283 E29.53335
G1 X36.951 Y93.242 E29.53543
G1 X37.228 Y91.889 E29.60433
G1 X37.237 Y91.848 E29.60643
G1 X37.749 Y89.504 E29.72613
G1 X37.758 Y89.461 E29.72832
G1 X38.06 Y88.164 E29.79476
G1 X38.071 Y88.122 E29.79692
G1 X38.464 Y86.533 E29.87859
G1 X38.475 Y86.489 E29.88085
G1 X38.755 Y85.421 E29.93593
G1 X38.782 Y85.322 E29.94105
G1 X39.027 Y84.497 E29.98399
G1 X39.039 Y84.457 E29.98607
G1 X39.422 Y83.226 E30.05039
G1 X39.439 Y83.175 E30.05307
G1 X39.747 Y82.241 E30.10214
G1 X39.759 Y82.204 E30.10408
G1 X40.396 Y80.348 E30.20198
G1 X40.423 Y80.272 E30.206
G1 X41.093 Y78.469 E30.30196
G1 X41.112 Y78.421 E30.30454
G1 X41.373 Y77.752 E30.34036
G1 X41.387 Y77.716 E30.34229
G1 X41.921 Y76.394 E30.41342
G1 X41.948 Y76.33 E30.41689
G1 X42.201 Y75.741 E30.44887
G1 X42.213 Y75.712 E30.45044
G1 X42.479 Y75.109 E30.48332
G1 X42.495 Y75.073 E30.48528
G1 X43.081 Y73.788 E30.55574
G1 X43.102 Y73.745 E30.55813
G1 X43.469 Y72.971 E30.60087
G1 X43.482 Y72.943 E30.60241
G1 X43.896 Y72.091 E30.64967
G1 X43.911 Y72.061 E30.65134
G1 X44.136 Y71.61 E30.67648
G1 X44.153 Y71.577 E30.67834
G1 X44.693 Y70.526 E30.73729
G1 X44.731 Y70.453 E30.74139
G1 X45.25 Y69.504 E30.79536
G1 X45.27 Y69.468 E30.79741
G1 X45.768 Y68.584 E30.84803
G1 X45.803 Y68.523 E30.85154
G1 X46.726 Y66.966 E30.94184
G1 X46.762 Y66.907 E30.94529
G1 X46.94 Y66.621 E30.9621
G1 X46.97 Y66.574 E30.96488
G1 X48.013 Y64.962 E31.06067
G1 X48.066 Y64.883 E31.06541
G1 X48.994 Y63.538 E31.14694
G1 X49.038 Y63.476 E31.15073
G1 X49.331 Y63.072 E31.17563
G1 X49.346 Y63.051 E31.17692
G1 X49.76 Y62.49 E31.2117
G1 X49.78 Y62.464 E31.21334
G1 X50.233 Y61.863 E31.25089
G1 X50.284 Y61.797 E31.25505
G1 X51.187 Y60.662 E31.32741
G1 X51.241 Y60.595 E31.3317
G1 X51.841 Y59.881 E31.37823
G1 X51.873 Y59.844 E31.38067
G1 X52.922 Y58.634 E31.46056
G1 X52.987 Y58.561 E31.46544
G1 X54.074 Y57.382 E31.54545
G1 X54.148 Y57.305 E31.55077
G1 X54.958 Y56.483 E31.60835
G1 X54.994 Y56.447 E31.61089
G1 X55.459 Y55.99 E31.64342
G1 F2400 E27.14342
;MESH:visera 1.2.stl
G0 F3600 X57.22 Y57.809
G0 X58.114 Y58.731
G0 X61.995 Y55.41
G0 X64.935 Y53.29
G0 X67.856 Y51.501
G0 X69.99 Y50.348
G0 X73.146 Y48.851
G0 X76.016 Y47.698
G0 X80.422 Y46.222
G0 X84.928 Y45.008
G0 X87.966 Y44.322
G0 X94.354 Y43.154
G0 X98.516 Y42.542
G0 X103.836 Y41.869
G0 X109.747 Y41.191
G0 X143.623 Y37.678
G0 X143.705 Y39.533
G0 X84.079 Y48.216
G0 X76.003 Y78.014
;TYPE:WALL-INNER
G1 F2400 E31.64342
G1 F1800 X75.322 Y79.545 E31.72701
G1 X74.968 Y80.309 E31.76902
G1 X74.631 Y81.1 E31.81192
G1 X74.003 Y82.684 E31.89693
G1 X73.571 Y83.885 E31.9606
G1 X73.273 Y84.692 E32.00352
G1 X72.739 Y86.328 E32.08938
G1 X72.339 Y87.57 E32.15448
G1 X71.985 Y88.839 E32.22021
G1 X71.519 Y90.529 E32.30767
G1 X71.217 Y91.832 E32.3744
G1 X70.901 Y93.116 E32.44037
G1 X70.623 Y94.443 E32.50801
G1 X70.355 Y95.772 E32.57565
G1 X69.885 Y98.474 E32.71248
G1 X69.742 Y99.397 E32.75907
G1 X69.366 Y102.178 E32.89908
G1 X69.012 Y105.498 E33.06566
G1 X68.754 Y108.904 E33.23607
G1 X68.684 Y110.401 E33.31084
G1 X68.602 Y111.877 E33.38459
G1 X68.566 Y112.893 E33.43531
G1 X68.523 Y114.93 E33.53696
G1 X68.502 Y118.012 E33.69072
G1 X68.505 Y119.565 E33.7682
G1 X68.527 Y120.595 E33.8196
G1 X68.634 Y123.613 E33.97026
G1 X68.7 Y124.589 E34.01907
G1 X68.891 Y128.047 E34.19185
G1 X69.066 Y129.969 E34.28814
G1 X69.203 Y131.416 E34.36065
G1 X69.575 Y134.18 E34.49979
G1 X69.685 Y135.12 E34.54701
G1 X69.814 Y136.067 E34.59469
G1 X70.055 Y137.41 E34.66276
G1 X70.353 Y139.22 E34.75428
G1 X70.529 Y140.119 E34.79998
G1 X70.804 Y141.443 E34.86745
G1 X71.199 Y143.176 E34.95612
G1 X71.41 Y144.053 E35.00113
G1 X71.869 Y145.728 E35.08777
G1 X72.093 Y146.58 E35.13172
G1 X72.342 Y147.438 E35.1763
