;FLAVOR:Marlin
;TIME:3457
;Filament used: 4.79341m
;Layer height: 0.28
;MINX:17.056
;MINY:11.039
;MINZ:0.3
;MAXX:181.02
;MAXY:188.966
;MAXZ:9.82
;Generated with Cura_SteamEngine 4.2.1
M140 S60
M105
M190 S60
M104 S200
M105
M109 S200
M82 ;absolute extrusion mode
G21 ;metric values
G90 ;absolute positioning
M82 ;set extruder to absolute mode
M107 ;start with the fan off
G28 X0 Y0 ;move X/Y to min endstops
G28 Z0 ;move Z to min endstops
G1 Z15.0 F9000 ;move the platform down 15mm
G92 E0 ;zero the extruded length
G1 F200 E3 ;extrude 3mm of feed stock
G92 E0 ;zero the extruded length again
G1 F9000
;Put printing message on LCD screen
M117 Printing...
M141 S28
G92 E0
G92 E0
G1 F1500 E-6.5
;LAYER_COUNT:35
;LAYER:0
M107
G0 F3600 X37.959 Y38.49 Z0.3
;TYPE:SKIRT
G1 F1500 E0
G1 F1800 X38.016 Y38.435 E0.00395
G1 X39.212 Y37.316 E0.08566
G1 X39.304 Y37.233 E0.09185
G1 X40.836 Y35.907 E0.19293
G1 X40.906 Y35.848 E0.1975
G1 X41.446 Y35.407 E0.23228
G1 X41.488 Y35.373 E0.23498
G1 X42.212 Y34.802 E0.28098
G1 X42.275 Y34.754 E0.28493
G1 X42.558 Y34.542 E0.30257
G1 X42.6 Y34.512 E0.30515
G1 X43.246 Y34.044 E0.34495
G1 X43.262 Y34.032 E0.34594
G1 X44.644 Y33.044 E0.4307
G1 X44.681 Y33.018 E0.43296
G1 X45.566 Y32.404 E0.48669
G1 X45.649 Y32.348 E0.49169
G1 X45.942 Y32.158 E0.50911
G1 X45.978 Y32.135 E0.51124
G1 X47.009 Y31.486 E0.57202
G1 X47.085 Y31.44 E0.57645
G1 X48.081 Y30.851 E0.63418
G1 X48.122 Y30.827 E0.63655
G1 X48.881 Y30.393 E0.68017
G1 X48.936 Y30.362 E0.68332
G1 X49.854 Y29.861 E0.7355
G1 X49.938 Y29.817 E0.74023
G1 X50.773 Y29.393 E0.78695
G1 X50.795 Y29.382 E0.78818
G1 X51.411 Y29.075 E0.82252
G1 X51.46 Y29.051 E0.82524
G1 X53.047 Y28.294 E0.91296
G1 X53.137 Y28.253 E0.91789
G1 X54.276 Y27.752 E0.97997
G1 X54.314 Y27.735 E0.98205
G1 X54.724 Y27.561 E1.00427
G1 X54.763 Y27.545 E1.00637
G1 X55.998 Y27.04 E1.07294
G1 X56.05 Y27.019 E1.07574
G1 X57.223 Y26.563 E1.13853
G1 X57.315 Y26.529 E1.14342
G1 X58.901 Y25.968 E1.22735
G1 X58.942 Y25.954 E1.22951
G1 X59.391 Y25.802 E1.25316
G1 X59.414 Y25.794 E1.25438
G1 X60.55 Y25.419 E1.31406
G1 X60.626 Y25.395 E1.31804
G1 X61.779 Y25.046 E1.37814
G1 X61.816 Y25.035 E1.38006
G1 X63.588 Y24.522 E1.4721
G1 X63.638 Y24.508 E1.47469
G1 X64.182 Y24.36 E1.50281
G1 X64.218 Y24.351 E1.50467
G1 X65.993 Y23.89 E1.59616
G1 X66.05 Y23.875 E1.5991
G1 X67.217 Y23.595 E1.65897
G1 X67.262 Y23.585 E1.66127
G1 X68.717 Y23.258 E1.73567
G1 X68.752 Y23.25 E1.73747
G1 X69.859 Y23.014 E1.79394
G1 X69.892 Y23.007 E1.79562
G1 X71.545 Y22.673 E1.87975
G1 X71.596 Y22.664 E1.88234
G1 X72.308 Y22.532 E1.91846
G1 X72.326 Y22.528 E1.91938
G1 X75.241 Y22.005 E2.06714
G1 X75.284 Y21.998 E2.06931
G1 X75.828 Y21.908 E2.09682
G1 X75.86 Y21.903 E2.09843
G1 X76.911 Y21.74 E2.1515
G1 X76.937 Y21.736 E2.15281
G1 X79.616 Y21.343 E2.2879
G1 X79.642 Y21.339 E2.28921
G1 X80.953 Y21.158 E2.35523
G1 X80.993 Y21.153 E2.35725
G1 X86.975 Y20.403 E2.65802
G1 X87.001 Y20.4 E2.65933
G1 X87.813 Y20.305 E2.70012
G1 X87.839 Y20.302 E2.70142
G1 X96.483 Y19.363 E3.13521
G1 X96.499 Y19.361 E3.13602
G1 X136.379 Y15.22 E5.13633
G1 X175.894 Y11.114 E7.11836
G1 X175.937 Y11.11 E7.12051
G1 X176.582 Y11.052 E7.15282
G1 X176.923 Y11.039 E7.16985
G1 X177.16 Y11.043 E7.18167
G1 X177.323 Y11.05 E7.18981
G1 X178.015 Y11.097 E7.22442
G1 X178.515 Y11.171 E7.24963
G1 X178.997 Y11.323 E7.27485
G1 X179.449 Y11.549 E7.30006
G1 X179.861 Y11.843 E7.32531
G1 X180.22 Y12.199 E7.35054
G1 X180.519 Y12.606 E7.37573
G1 X180.75 Y13.056 E7.40097
G1 X180.908 Y13.536 E7.42618
G1 X180.997 Y14.221 E7.46064
G1 X181.019 Y15.248 E7.51189
G1 X181.02 Y15.321 E7.51553
G1 X181.019 Y16.045 E7.55165
G1 X181.019 Y16.085 E7.55365
G1 X181.01 Y16.746 E7.58663
G1 X180.963 Y17.249 E7.61183
G1 X180.837 Y17.739 E7.63707
G1 X180.636 Y18.203 E7.6623
G1 X180.365 Y18.629 E7.68749
G1 X180.029 Y19.007 E7.71272
G1 X179.609 Y19.348 E7.73971
G1 X178.959 Y19.79 E7.77893
G1 X176.686 Y21.374 E7.91715
G1 X174.47 Y23.013 E8.05466
G1 X172.328 Y24.694 E8.1905
G1 X170.198 Y26.465 E8.3287
G1 X168.173 Y28.248 E8.46331
G1 X166.143 Y30.138 E8.60169
G1 X164.207 Y32.049 E8.73741
G1 X162.324 Y34.013 E8.87315
G1 X160.474 Y36.057 E9.01069
G1 X158.677 Y38.156 E9.14854
G1 X156.994 Y40.243 E9.2823
G1 X155.313 Y42.451 E9.42075
G1 X153.716 Y44.673 E9.55727
G1 X152.19 Y46.932 E9.69328
G1 X150.719 Y49.245 E9.83003
G1 X149.319 Y51.595 E9.9665
G1 X147.985 Y53.982 E10.10293
G1 X146.71 Y56.424 E10.24036
G1 X145.517 Y58.874 E10.37632
G1 X144.393 Y61.362 E10.51252
G1 X143.326 Y63.909 E10.65029
G1 X142.336 Y66.473 E10.78741
G1 X141.434 Y69.03 E10.92269
G1 X140.59 Y71.651 E11.06006
G1 X139.832 Y74.252 E11.19523
G1 X139.137 Y76.921 E11.33282
G1 X138.522 Y79.585 E11.46923
G1 X137.976 Y82.294 E11.6071
G1 X137.522 Y84.953 E11.74167
G1 X137.129 Y87.7 E11.88012
G1 X136.823 Y90.392 E12.01529
G1 X136.59 Y93.106 E12.15119
G1 X136.434 Y95.853 E12.28846
G1 X136.355 Y98.606 E12.42586
G1 X136.353 Y101.324 E12.56146
G1 X136.43 Y104.076 E12.69881
G1 X136.583 Y106.794 E12.83463
G1 X136.814 Y109.527 E12.97147
G1 X137.126 Y112.278 E13.10959
G1 X137.505 Y114.955 E13.24448
G1 X137.967 Y117.65 E13.3809
G1 X138.502 Y120.326 E13.51705
G1 X139.12 Y123.021 E13.65499
G1 X139.807 Y125.665 E13.79128
G1 X140.568 Y128.284 E13.92735
G1 X141.408 Y130.9 E14.06442
G1 X142.314 Y133.471 E14.20042
G1 X143.3 Y136.033 E14.33738
G1 X144.356 Y138.566 E14.47429
G1 X145.476 Y141.044 E14.60996
G1 X146.682 Y143.53 E14.74781
G1 X147.946 Y145.958 E14.88438
G1 X149.267 Y148.325 E15.01961
G1 X150.681 Y150.699 E15.15747
G1 X152.143 Y153.004 E15.29365
G1 X153.672 Y155.271 E15.43007
G1 X155.259 Y157.485 E15.56597
G1 X156.93 Y159.682 E15.70368
G1 X158.644 Y161.809 E15.83997
G1 X160.418 Y163.886 E15.97624
G1 X162.272 Y165.939 E16.11425
G1 X164.151 Y167.902 E16.24982
G1 X166.108 Y169.836 E16.38709
G1 X168.075 Y171.673 E16.52136
G1 X170.176 Y173.525 E16.66109
G1 X172.231 Y175.235 E16.79447
G1 X174.427 Y176.961 E16.93382
G1 X176.608 Y178.578 E17.06927
G1 X178.906 Y180.161 E17.20849
G1 X178.927 Y180.175 E17.20975
G1 X179.628 Y180.666 E17.25244
G1 X180.018 Y180.988 E17.27768
G1 X180.352 Y181.367 E17.30288
G1 X180.622 Y181.794 E17.32808
G1 X180.822 Y182.259 E17.35334
G1 X180.946 Y182.749 E17.37855
G1 X180.991 Y183.208 E17.40156
G1 X181.013 Y184.097 E17.44593
G1 X181.014 Y184.161 E17.44912
G1 X181.018 Y184.996 E17.49078
G1 X181.018 Y185.039 E17.49293
G1 X181.012 Y185.729 E17.52735
G1 X180.968 Y186.232 E17.55254
G1 X180.844 Y186.723 E17.57781
G1 X180.646 Y187.188 E17.60302
G1 X180.376 Y187.615 E17.62823
G1 X180.043 Y187.995 E17.65344
G1 X179.653 Y188.318 E17.6787
G1 X179.218 Y188.575 E17.70391
G1 X178.748 Y188.761 E17.72912
G1 X178.22 Y188.875 E17.75607
G1 X177.652 Y188.948 E17.78464
G1 X177.011 Y188.966 E17.81664
G1 X176.723 Y188.945 E17.83104
G1 X176.627 Y188.936 E17.83585
G1 X136.386 Y184.782 E19.85415
G1 X136.384 Y184.782 E19.85425
G1 X96.041 Y180.591 E21.8778
G1 X96.03 Y180.59 E21.87836
G1 X92.94 Y180.258 E22.0334
G1 X92.935 Y180.257 E22.03366
G1 X88.07 Y179.726 E22.27782
G1 X88.048 Y179.724 E22.27892
G1 X85.973 Y179.483 E22.38314
G1 X85.944 Y179.479 E22.3846
G1 X81.655 Y178.942 E22.60025
G1 X81.628 Y178.939 E22.6016
G1 X80.717 Y178.817 E22.64746
G1 X80.685 Y178.812 E22.64907
G1 X79.742 Y178.676 E22.69661
G1 X79.722 Y178.673 E22.69761
G1 X78.151 Y178.436 E22.77688
G1 X76.638 Y178.215 E22.85316
G1 X76.592 Y178.208 E22.85549
G1 X75.087 Y177.966 E22.93153
G1 X75.036 Y177.958 E22.93411
G1 X72.606 Y177.527 E23.05724
G1 X72.553 Y177.517 E23.05993
G1 X71.055 Y177.225 E23.13607
G1 X71.008 Y177.215 E23.13847
G1 X68.119 Y176.607 E23.28576
G1 X68.064 Y176.595 E23.28856
G1 X66.217 Y176.172 E23.3831
G1 X66.161 Y176.159 E23.38597
G1 X65.806 Y176.071 E23.40421
G1 X65.766 Y176.061 E23.40627
G1 X64.451 Y175.717 E23.47408
G1 X64.411 Y175.706 E23.47615
G1 X63.217 Y175.377 E23.53794
G1 X63.168 Y175.363 E23.54048
G1 X61.678 Y174.927 E23.61794
G1 X61.636 Y174.914 E23.62013
G1 X60.59 Y174.592 E23.67473
G1 X60.535 Y174.575 E23.6776
G1 X59.066 Y174.094 E23.75472
G1 X59 Y174.072 E23.75819
G1 X58.548 Y173.913 E23.7821
G1 X58.523 Y173.904 E23.78342
G1 X56.992 Y173.351 E23.86464
G1 X56.91 Y173.32 E23.86901
G1 X55.389 Y172.723 E23.95053
G1 X55.319 Y172.694 E23.95431
G1 X54.981 Y172.552 E23.9726
G1 X54.932 Y172.531 E23.97526
G1 X53.235 Y171.785 E24.06774
G1 X53.183 Y171.762 E24.07058
G1 X52.925 Y171.643 E24.08475
G1 X52.895 Y171.629 E24.0864
G1 X51.899 Y171.157 E24.14139
G1 X51.864 Y171.14 E24.14333
G1 X50.978 Y170.707 E24.19253
G1 X50.935 Y170.686 E24.19492
G1 X50.04 Y170.232 E24.24499
G1 X49.965 Y170.192 E24.24923
G1 X49.409 Y169.891 E24.28077
G1 X49.359 Y169.864 E24.28361
G1 X47.922 Y169.053 E24.36593
G1 X47.828 Y168.997 E24.37139
G1 X46.306 Y168.068 E24.46035
G1 X46.247 Y168.032 E24.4638
G1 X45.413 Y167.498 E24.5132
G1 X45.326 Y167.44 E24.51842
G1 X44.209 Y166.672 E24.58605
G1 X44.114 Y166.604 E24.59188
G1 X42.229 Y165.204 E24.70902
G1 X42.198 Y165.181 E24.71095
G1 X41.632 Y164.75 E24.74644
G1 X41.555 Y164.689 E24.75134
G1 X41.03 Y164.263 E24.78507
G1 X40.954 Y164.199 E24.79003
G1 X39.417 Y162.871 E24.89137
G1 X39.325 Y162.789 E24.89751
G1 X38.022 Y161.572 E24.98647
G1 X37.937 Y161.49 E24.99236
G1 X36.644 Y160.19 E25.08383
G1 X36.563 Y160.105 E25.08969
G1 X35.287 Y158.724 E25.1835
G1 X35.208 Y158.636 E25.1894
G1 X34.054 Y157.291 E25.27781
G1 X33.983 Y157.205 E25.28338
G1 X32.781 Y155.701 E25.37943
G1 X32.712 Y155.611 E25.38509
G1 X31.633 Y154.158 E25.47538
G1 X31.567 Y154.065 E25.48107
G1 X30.332 Y152.272 E25.58969
G1 X30.272 Y152.182 E25.59509
G1 X29.405 Y150.827 E25.67534
G1 X29.375 Y150.78 E25.67812
G1 X29.21 Y150.512 E25.69383
G1 X29.185 Y150.47 E25.69626
G1 X28.337 Y149.044 E25.77904
G1 X28.309 Y148.997 E25.78177
G1 X28.126 Y148.677 E25.80016
G1 X28.102 Y148.633 E25.80266
G1 X27.489 Y147.521 E25.86601
G1 X27.443 Y147.435 E25.87087
G1 X26.959 Y146.49 E25.92384
G1 X26.917 Y146.404 E25.92862
G1 X25.826 Y144.108 E26.05544
G1 X25.093 Y142.586 E26.13972
G1 X25.073 Y142.545 E26.142
G1 X24.673 Y141.683 E26.18941
G1 X24.614 Y141.548 E26.19676
G1 X23.951 Y139.928 E26.28408
G1 X23.929 Y139.873 E26.28704
G1 X23.339 Y138.351 E26.36848
G1 X23.325 Y138.312 E26.37055
G1 X22.91 Y137.199 E26.42981
G1 X22.88 Y137.117 E26.43416
G1 X22.486 Y135.965 E26.49491
G1 X22.478 Y135.942 E26.49612
G1 X22.117 Y134.86 E26.55303
G1 X22.103 Y134.816 E26.55533
G1 X21.575 Y133.155 E26.64228
G1 X21.559 Y133.101 E26.64509
G1 X21.368 Y132.461 E26.67842
G1 X21.356 Y132.421 E26.6805
G1 X20.998 Y131.162 E26.7458
G1 X20.988 Y131.126 E26.74767
G1 X20.73 Y130.176 E26.79678
G1 X20.72 Y130.137 E26.79879
G1 X20.425 Y128.994 E26.85768
G1 X20.415 Y128.956 E26.85964
G1 X20.169 Y127.952 E26.91121
G1 X20.16 Y127.914 E26.91316
G1 X19.877 Y126.695 E26.97559
G1 X19.869 Y126.658 E26.97748
G1 X19.683 Y125.812 E27.0207
G1 X19.672 Y125.764 E27.02315
G1 X19.362 Y124.243 E27.1006
G1 X19.352 Y124.19 E27.10329
G1 X19.042 Y122.526 E27.18773
G1 X19.038 Y122.503 E27.1889
G1 X18.909 Y121.781 E27.22549
G1 X18.904 Y121.75 E27.22706
G1 X18.743 Y120.795 E27.27537
G1 X18.737 Y120.762 E27.27705
G1 X18.558 Y119.627 E27.33437
G1 X18.555 Y119.608 E27.33533
G1 X18.389 Y118.514 E27.39054
G1 X18.385 Y118.483 E27.3921
G1 X18.237 Y117.438 E27.44475
G1 X18.232 Y117.404 E27.44647
G1 X17.99 Y115.553 E27.5396
G1 X17.985 Y115.509 E27.54181
G1 X17.814 Y114.045 E27.61534
G1 X17.808 Y113.992 E27.618
G1 X17.561 Y111.52 E27.74195
G1 X17.556 Y111.471 E27.7444
G1 X17.481 Y110.583 E27.78886
G1 X17.479 Y110.552 E27.79041
G1 X17.332 Y108.579 E27.88912
G1 X17.329 Y108.533 E27.89142
G1 X17.266 Y107.487 E27.9437
G1 X17.264 Y107.456 E27.94525
G1 X17.175 Y105.693 E28.03332
G1 X17.174 Y105.66 E28.03497
G1 X17.127 Y104.482 E28.09378
G1 X17.125 Y104.434 E28.09618
G1 X17.076 Y102.466 E28.19439
G1 X17.075 Y102.419 E28.19674
G1 X17.056 Y100.598 E28.28759
G1 X17.056 Y100.556 E28.28969
G1 X17.06 Y99.092 E28.36273
G1 X17.06 Y99.066 E28.36403
G1 X17.068 Y98.336 E28.40045
G1 X17.069 Y98.303 E28.4021
G1 X17.092 Y97.221 E28.45609
G1 X17.145 Y95.525 E28.54074
G1 X17.146 Y95.485 E28.54274
G1 X17.206 Y94.119 E28.61096
G1 X17.208 Y94.076 E28.6131
G1 X17.334 Y91.872 E28.72324
G1 X17.337 Y91.827 E28.72549
G1 X17.436 Y90.441 E28.79482
G1 X17.596 Y88.553 E28.88935
G1 X17.6 Y88.513 E28.89135
G1 X17.714 Y87.343 E28.95
G1 X17.718 Y87.301 E28.9521
G1 X17.836 Y86.236 E29.00556
G1 X17.839 Y86.211 E29.00682
G1 X18.076 Y84.216 E29.10705
G1 X18.082 Y84.174 E29.10917
G1 X18.278 Y82.689 E29.1839
G1 X18.284 Y82.641 E29.18631
G1 X18.441 Y81.577 E29.23997
G1 X18.447 Y81.541 E29.24179
G1 X18.739 Y79.705 E29.33454
G1 X18.741 Y79.689 E29.33534
G1 X18.904 Y78.697 E29.3855
G1 X18.911 Y78.657 E29.38752
G1 X19.137 Y77.383 E29.45207
G1 X19.145 Y77.341 E29.45421
G1 X19.443 Y75.783 E29.53335
G1 X19.451 Y75.742 E29.53543
G1 X19.728 Y74.389 E29.60433
G1 X19.737 Y74.348 E29.60643
G1 X20.249 Y72.004 E29.72613
G1 X20.258 Y71.961 E29.72832
G1 X20.56 Y70.664 E29.79476
G1 X20.571 Y70.622 E29.79692
G1 X20.964 Y69.033 E29.87859
G1 X20.975 Y68.989 E29.88085
G1 X21.255 Y67.921 E29.93593
G1 X21.282 Y67.822 E29.94105
G1 X21.527 Y66.997 E29.98399
G1 X21.539 Y66.957 E29.98607
G1 X21.922 Y65.726 E30.05039
G1 X21.939 Y65.675 E30.05307
G1 X22.247 Y64.741 E30.10214
G1 X22.259 Y64.704 E30.10408
G1 X22.896 Y62.848 E30.20198
G1 X22.923 Y62.772 E30.206
G1 X23.593 Y60.969 E30.30196
G1 X23.612 Y60.921 E30.30454
G1 X23.873 Y60.252 E30.34036
G1 X23.887 Y60.216 E30.34229
G1 X24.421 Y58.894 E30.41342
G1 X24.448 Y58.83 E30.41689
G1 X24.701 Y58.241 E30.44887
G1 X24.713 Y58.212 E30.45044
G1 X24.979 Y57.609 E30.48332
G1 X24.995 Y57.573 E30.48528
G1 X25.581 Y56.288 E30.55574
G1 X25.602 Y56.245 E30.55813
G1 X25.969 Y55.471 E30.60087
G1 X25.982 Y55.443 E30.60241
G1 X26.396 Y54.591 E30.64967
G1 X26.411 Y54.561 E30.65134
G1 X26.636 Y54.11 E30.67648
G1 X26.653 Y54.077 E30.67834
G1 X27.193 Y53.026 E30.73729
G1 X27.231 Y52.953 E30.74139
G1 X27.75 Y52.004 E30.79536
G1 X27.77 Y51.968 E30.79741
G1 X28.268 Y51.084 E30.84803
G1 X28.303 Y51.023 E30.85154
G1 X29.226 Y49.466 E30.94184
G1 X29.262 Y49.407 E30.94529
G1 X29.44 Y49.121 E30.9621
G1 X29.47 Y49.074 E30.96488
G1 X30.513 Y47.462 E31.06067
G1 X30.566 Y47.383 E31.06541
G1 X31.494 Y46.038 E31.14694
G1 X31.538 Y45.976 E31.15073
G1 X31.831 Y45.572 E31.17563
G1 X31.846 Y45.551 E31.17692
G1 X32.26 Y44.99 E31.2117
G1 X32.28 Y44.964 E31.21334
G1 X32.733 Y44.363 E31.25089
G1 X32.784 Y44.297 E31.25505
G1 X33.687 Y43.162 E31.32741
G1 X33.741 Y43.095 E31.3317
G1 X34.341 Y42.381 E31.37823
G1 X34.373 Y42.344 E31.38067
G1 X35.422 Y41.134 E31.46056
G1 X35.487 Y41.061 E31.46544
G1 X36.574 Y39.882 E31.54545
G1 X36.648 Y39.805 E31.55077
G1 X37.458 Y38.983 E31.60835
G1 X37.494 Y38.947 E31.61089
G1 X37.959 Y38.49 E31.64342
G1 F1500 E25.14342
;MESH:visera 1.2.stl
G0 F3600 X39.72 Y40.309
G0 X40.614 Y41.231
G0 X44.495 Y37.91
G0 X47.435 Y35.79
G0 X50.356 Y34.001
G0 X52.49 Y32.848
G0 X55.646 Y31.351
G0 X58.516 Y30.198
G0 X62.922 Y28.722
G0 X67.428 Y27.508
G0 X70.466 Y26.822
G0 X73.512 Y26.225
G0 X76.854 Y25.654
G0 X81.016 Y25.042
G0 X86.336 Y24.369
G0 X92.247 Y23.691
G0 X126.123 Y20.178
G0 X126.205 Y22.033
G0 X66.579 Y30.716
G0 X58.503 Y60.514
;TYPE:WALL-INNER
G1 F1500 E31.64342
G1 F1800 X57.822 Y62.045 E31.72701
G1 X57.468 Y62.809 E31.76902
G1 X57.131 Y63.6 E31.81192
G1 X56.503 Y65.184 E31.89693
G1 X56.071 Y66.385 E31.9606
G1 X55.773 Y67.192 E32.00352
G1 X55.239 Y68.828 E32.08938
G1 X54.839 Y70.07 E32.15448
G1 X54.485 Y71.339 E32.22021
G1 X54.019 Y73.029 E32.30767
G1 X53.717 Y74.332 E32.3744
G1 X53.401 Y75.616 E32.44037
G1 X53.123 Y76.943 E32.50801
G1 X52.855 Y78.272 E32.57565
G1 X52.385 Y80.974 E32.71248
G1 X52.242 Y81.897 E32.75907
G1 X51.866 Y84.678 E32.89908
G1 X51.512 Y87.998 E33.06566
G1 X51.254 Y91.404 E33.23607
G1 X51.184 Y92.901 E33.31084
G1 X51.102 Y94.377 E33.38459
G1 X51.066 Y95.393 E33.43531
G1 X51.023 Y97.43 E33.53696
G1 X51.002 Y100.512 E33.69072
G1 X51.005 Y102.065 E33.7682
G1 X51.027 Y103.095 E33.8196
G1 X51.134 Y106.113 E33.97026
G1 X51.2 Y107.089 E34.01907
G1 X51.391 Y110.547 E34.19185
G1 X51.566 Y112.469 E34.28814
G1 X51.703 Y113.916 E34.36065
G1 X52.075 Y116.68 E34.49979
G1 X52.185 Y117.62 E34.54701
